X:135
M: C|
L:1/8
K:D
|: F(AA)B ABAF | G/G/G G2 GABG | F(AA)B ABAF | GBAF E2D2 :|
|: (f/g/a) ab a>baf | g/g/g g2 gaba | f/g/a ab a>baf | fafg e2 d2 :|

